X:5668
T:Gan ainm
R:Reel
S:
H:
N:
D:
Z:Adrian Scahill
M:4/4
L:1/8
K:G
ge|dBAB G3E|DGG2 DGBe|dBAB G3A|Beed efge:||\
dBB2 dBge|dBB2 d3e|dBB2 g2fg|egdB A2Bc|\
dBB2 dBgf|edef g3a|b2af gfed |(3efg fa g2Bd||egdB G3E|DGG2 DGBe|
